flaticon/army-badges/walkie-talkie.svg

<svg xmlns="http://www.w3.org/2000/svg" width="32" height="32" viewBox="0 0 24 24">
    <path d="M 10.988281 9.121094 L 10.628906 7.480469 C 10.46875 6.839844 9.90625 6.398438 9.269531 6.398438 L 2.027344 6.398438 C 1.347656 6.398438 0.789062 6.839844 0.628906 7.480469 L 0.269531 9.121094 C -0.0507812 10.519531 -0.09375 12.039062 0.226562 13.441406 C 0.546875 14.800781 0.707031 15.878906 0.746094 16.878906 L 0.828125 18 L 0.828125 20.800781 C 0.828125 22.558594 2.269531 24 4.027344 24 L 7.226562 24 C 8.988281 24 10.429688 22.558594 10.429688 20.800781 L 10.429688 18.039062 L 10.507812 16.878906 C 10.589844 15.878906 10.746094 14.800781 11.027344 13.441406 C 11.308594 12.039062 11.308594 10.519531 10.988281 9.121094 Z M 10.226562 13.238281 C 9.949219 14.640625 9.789062 15.761719 9.707031 16.800781 L 9.628906 17.960938 L 9.628906 20.761719 C 9.628906 22.078125 8.546875 23.160156 7.226562 23.160156 L 4.027344 23.160156 C 2.707031 23.160156 1.628906 22.078125 1.628906 20.761719 L 1.628906 17.960938 L 1.585938 16.878906 C 1.546875 15.839844 1.386719 14.71875 1.066406 13.320312 C 0.789062 12 0.789062 10.640625 1.109375 9.320312 L 1.46875 7.679688 C 1.507812 7.398438 2.027344 7.121094 2.027344 7.121094 L 9.269531 7.121094 C 9.507812 7.121094 9.746094 7.320312 9.828125 7.601562 L 10.1875 9.238281 C 10.507812 10.558594 10.507812 11.921875 10.226562 13.238281 Z M 10.226562 13.238281"/>
    <path d="M3.269531 0C2.585938 0 2.066406.519531 2.066406 1.160156L2.066406 6.679688C2.066406 6.921875 2.226562 7.078125 2.46875 7.078125L4.027344 7.078125C4.269531 7.078125 4.429688 6.921875 4.46875 6.640625L4.46875 1.160156C4.46875.519531 3.949219 0 3.269531 0zM3.628906 6.28125L2.867188 6.28125 2.828125 1.160156C2.828125.921875 2.988281.761719 3.226562.761719 3.46875.761719 3.628906.960938 3.628906 1.160156zM6.066406 3.960938C5.386719 3.960938 4.867188 4.441406 4.867188 5.121094L4.867188 6.679688C4.867188 6.921875 5.027344 7.078125 5.269531 7.078125L6.867188 7.078125C7.066406 7.078125 7.269531 6.921875 7.269531 6.679688L7.269531 5.121094C7.269531 4.480469 6.746094 3.960938 6.066406 3.960938zM6.46875 6.28125L5.667969 6.28125 5.667969 5.121094C5.667969 4.878906 5.828125 4.71875 6.066406 4.71875 6.308594 4.71875 6.46875 4.878906 6.46875 5.121094zM8.867188 3.960938C8.1875 3.960938 7.667969 4.441406 7.667969 5.121094L7.667969 6.679688C7.667969 6.921875 7.828125 7.078125 8.066406 7.078125L9.667969 7.078125C9.867188 7.078125 10.066406 6.921875 10.066406 6.679688L10.066406 5.121094C10.066406 4.480469 9.546875 3.960938 8.867188 3.960938zM9.269531 6.28125L8.46875 6.28125 8.46875 5.121094C8.46875 4.878906 8.628906 4.71875 8.867188 4.71875 9.109375 4.71875 9.269531 4.878906 9.269531 5.121094zM9.226562 8L2.027344 8C1.789062 8 1.628906 8.160156 1.628906 8.398438L1.628906 12.398438C1.628906 12.640625 1.789062 12.800781 2.027344 12.800781L9.226562 12.800781C9.46875 12.800781 9.628906 12.640625 9.628906 12.398438L9.628906 8.398438C9.628906 8.160156 9.46875 8 9.226562 8zM8.828125 12L2.429688 12 2.429688 8.800781 8.828125 8.800781zM4.027344 17.601562L3.226562 17.601562C2.988281 17.601562 2.828125 17.761719 2.828125 18 2.828125 18.238281 2.988281 18.398438 3.226562 18.398438L4.027344 18.398438C4.269531 18.398438 4.429688 18.238281 4.429688 18 4.429688 17.761719 4.269531 17.601562 4.027344 17.601562zM3.226562 13.601562L2.027344 13.601562C1.789062 13.601562 1.628906 13.761719 1.628906 14 1.628906 14.238281 1.789062 14.398438 2.027344 14.398438L3.226562 14.398438C3.46875 14.398438 3.628906 14.238281 3.628906 14 3.628906 13.761719 3.46875 13.601562 3.226562 13.601562zM6.027344 17.601562L5.226562 17.601562C4.988281 17.601562 4.828125 17.761719 4.828125 18 4.828125 18.238281 4.988281 18.398438 5.226562 18.398438L6.027344 18.398438C6.269531 18.398438 6.429688 18.238281 6.429688 18 6.429688 17.761719 6.269531 17.601562 6.027344 17.601562zM8.027344 17.601562L7.226562 17.601562C6.988281 17.601562 6.828125 17.761719 6.828125 18 6.828125 18.238281 6.988281 18.398438 7.226562 18.398438L8.027344 18.398438C8.269531 18.398438 8.429688 18.238281 8.429688 18 8.429688 17.761719 8.269531 17.601562 8.027344 17.601562zM4.027344 16L3.226562 16C2.988281 16 2.828125 16.160156 2.828125 16.398438 2.828125 16.640625 2.988281 16.800781 3.226562 16.800781L4.027344 16.800781C4.269531 16.800781 4.429688 16.640625 4.429688 16.398438 4.429688 16.160156 4.269531 16 4.027344 16zM6.027344 16L5.226562 16C4.988281 16 4.828125 16.160156 4.828125 16.398438 4.828125 16.640625 4.988281 16.800781 5.226562 16.800781L6.027344 16.800781C6.269531 16.800781 6.429688 16.640625 6.429688 16.398438 6.429688 16.160156 6.269531 16 6.027344 16zM8.027344 16L7.226562 16C6.988281 16 6.828125 16.160156 6.828125 16.398438 6.828125 16.640625 6.988281 16.800781 7.226562 16.800781L8.027344 16.800781C8.269531 16.800781 8.429688 16.640625 8.429688 16.398438 8.429688 16.160156 8.269531 16 8.027344 16zM4.027344 19.199219L3.226562 19.199219C2.988281 19.199219 2.828125 19.359375 2.828125 19.601562 2.828125 19.839844 2.988281 20 3.226562 20L4.027344 20C4.269531 20 4.429688 19.839844 4.429688 19.601562 4.429688 19.359375 4.269531 19.199219 4.027344 19.199219zM6.027344 19.199219L5.226562 19.199219C4.988281 19.199219 4.828125 19.359375 4.828125 19.601562 4.828125 19.839844 4.988281 20 5.226562 20L6.027344 20C6.269531 20 6.429688 19.839844 6.429688 19.601562 6.429688 19.359375 6.269531 19.199219 6.027344 19.199219zM8.027344 19.199219L7.226562 19.199219C6.988281 19.199219 6.828125 19.359375 6.828125 19.601562 6.828125 19.839844 6.988281 20 7.226562 20L8.027344 20C8.269531 20 8.429688 19.839844 8.429688 19.601562 8.429688 19.359375 8.269531 19.199219 8.027344 19.199219zM4.027344 20.800781L3.226562 20.800781C2.988281 20.800781 2.828125 20.960938 2.828125 21.199219 2.828125 21.441406 2.988281 21.601562 3.226562 21.601562L4.027344 21.601562C4.269531 21.601562 4.429688 21.441406 4.429688 21.199219 4.429688 20.960938 4.269531 20.800781 4.027344 20.800781zM6.027344 20.800781L5.226562 20.800781C4.988281 20.800781 4.828125 20.960938 4.828125 21.199219 4.828125 21.441406 4.988281 21.601562 5.226562 21.601562L6.027344 21.601562C6.269531 21.601562 6.429688 21.441406 6.429688 21.199219 6.429688 20.960938 6.269531 20.800781 6.027344 20.800781zM8.027344 20.800781L7.226562 20.800781C6.988281 20.800781 6.828125 20.960938 6.828125 21.199219 6.828125 21.441406 6.988281 21.601562 7.226562 21.601562L8.027344 21.601562C8.269531 21.601562 8.429688 21.441406 8.429688 21.199219 8.429688 20.960938 8.269531 20.800781 8.027344 20.800781zM9.226562 13.601562L4.429688 13.601562C4.1875 13.601562 4.027344 13.761719 4.027344 14 4.027344 14.238281 4.1875 14.398438 4.429688 14.398438L9.226562 14.398438C9.46875 14.398438 9.628906 14.238281 9.628906 14 9.628906 13.761719 9.46875 13.601562 9.226562 13.601562zM23.746094 9.121094L23.386719 7.480469C23.226562 6.839844 22.667969 6.398438 22.027344 6.398438L14.789062 6.398438C14.148438 6.398438 13.585938 6.839844 13.429688 7.480469L13.066406 9.121094C12.746094 10.519531 12.707031 12 13.027344 13.441406 13.347656 14.800781 13.507812 15.878906 13.546875 16.878906L13.628906 18 13.628906 20.800781C13.628906 22.558594 15.066406 24 16.828125 24L20.027344 24C21.789062 24 23.226562 22.558594 23.226562 20.800781L23.226562 18.039062 23.269531 16.878906C23.347656 15.878906 23.507812 14.800781 23.789062 13.441406 24.066406 12.039062 24.066406 10.519531 23.746094 9.121094zM23.066406 13.320312C22.789062 14.71875 22.585938 15.839844 22.546875 16.878906L22.46875 18.039062 22.46875 20.839844C22.46875 22.160156 21.386719 23.238281 20.066406 23.238281L16.867188 23.238281C15.546875 23.238281 14.46875 22.160156 14.46875 20.839844L14.46875 18.039062 14.386719 16.878906C14.347656 15.839844 14.148438 14.71875 13.867188 13.320312 13.585938 12 13.585938 10.640625 13.90625 9.320312L14.269531 7.679688C14.308594 7.398438 14.546875 7.199219 14.828125 7.199219 14.828125 7.199219 22.109375 7.199219 22.109375 7.199219 22.347656 7.199219 22.585938 7.398438 22.667969 7.679688L23.027344 9.320312C23.347656 10.640625 23.347656 12 23.066406 13.320312zM23.066406 13.320312"/>
    <path d="M16.066406 0C15.386719 0 14.867188.558594 14.867188 1.199219L14.867188 6.800781C14.867188 7.039062 15.027344 7.199219 15.269531 7.199219L16.828125 7.199219C17.066406 7.199219 17.226562 7.039062 17.269531 6.800781L17.269531 1.199219C17.269531.519531 16.746094 0 16.066406 0zM16.429688 6.398438L15.667969 6.398438 15.628906 1.199219C15.628906.960938 15.789062.800781 16.027344.800781 16.269531.800781 16.429688 1 16.429688 1.199219zM18.867188 4C18.1875 4 17.667969 4.519531 17.667969 5.199219L17.667969 6.800781C17.667969 7.039062 17.828125 7.199219 18.066406 7.199219L19.667969 7.199219C19.867188 7.199219 20.066406 7.039062 20.066406 6.800781L20.066406 5.199219C20.066406 4.519531 19.546875 4 18.867188 4zM19.269531 6.398438L18.46875 6.398438 18.46875 5.199219C18.46875 4.960938 18.628906 4.800781 18.867188 4.800781 19.109375 4.800781 19.269531 4.960938 19.269531 5.199219zM21.667969 4C20.988281 4 20.46875 4.519531 20.46875 5.199219L20.46875 6.800781C20.46875 7.039062 20.628906 7.199219 20.867188 7.199219L22.46875 7.199219C22.667969 7.199219 22.867188 7.039062 22.867188 6.800781L22.867188 5.199219C22.867188 4.519531 22.347656 4 21.667969 4zM22.066406 6.398438L21.269531 6.398438 21.269531 5.199219C21.269531 4.960938 21.429688 4.800781 21.667969 4.800781 21.90625 4.800781 22.066406 4.960938 22.066406 5.199219zM22.027344 8L14.828125 8C14.585938 8 14.429688 8.160156 14.429688 8.398438L14.429688 12.398438C14.429688 12.640625 14.585938 12.800781 14.828125 12.800781L22.027344 12.800781C22.269531 12.800781 22.429688 12.640625 22.429688 12.398438L22.429688 8.398438C22.429688 8.160156 22.269531 8 22.027344 8zM21.628906 12L15.226562 12 15.226562 8.800781 21.628906 8.800781zM16.828125 17.601562L16.027344 17.601562C15.789062 17.601562 15.628906 17.761719 15.628906 18 15.628906 18.238281 15.789062 18.398438 16.027344 18.398438L16.828125 18.398438C17.066406 18.398438 17.226562 18.238281 17.226562 18 17.226562 17.761719 17.066406 17.601562 16.828125 17.601562zM16.027344 13.601562L14.828125 13.601562C14.585938 13.601562 14.429688 13.761719 14.429688 14 14.429688 14.238281 14.585938 14.398438 14.828125 14.398438L16.027344 14.398438C16.269531 14.398438 16.429688 14.238281 16.429688 14 16.429688 13.761719 16.269531 13.601562 16.027344 13.601562zM18.828125 17.601562L18.027344 17.601562C17.789062 17.601562 17.628906 17.761719 17.628906 18 17.628906 18.238281 17.789062 18.398438 18.027344 18.398438L18.828125 18.398438C19.066406 18.398438 19.226562 18.238281 19.226562 18 19.226562 17.761719 19.066406 17.601562 18.828125 17.601562zM20.828125 17.601562L20.027344 17.601562C19.789062 17.601562 19.628906 17.761719 19.628906 18 19.628906 18.238281 19.789062 18.398438 20.027344 18.398438L20.828125 18.398438C21.066406 18.398438 21.226562 18.238281 21.226562 18 21.226562 17.761719 21.066406 17.601562 20.828125 17.601562zM16.828125 16L16.027344 16C15.789062 16 15.628906 16.160156 15.628906 16.398438 15.628906 16.640625 15.789062 16.800781 16.027344 16.800781L16.828125 16.800781C17.066406 16.800781 17.226562 16.640625 17.226562 16.398438 17.226562 16.160156 17.066406 16 16.828125 16zM18.828125 16L18.027344 16C17.789062 16 17.628906 16.160156 17.628906 16.398438 17.628906 16.640625 17.789062 16.800781 18.027344 16.800781L18.828125 16.800781C19.066406 16.800781 19.226562 16.640625 19.226562 16.398438 19.226562 16.160156 19.066406 16 18.828125 16zM20.828125 16L20.027344 16C19.789062 16 19.628906 16.160156 19.628906 16.398438 19.628906 16.640625 19.789062 16.800781 20.027344 16.800781L20.828125 16.800781C21.066406 16.800781 21.226562 16.640625 21.226562 16.398438 21.226562 16.160156 21.066406 16 20.828125 16zM16.828125 19.199219L16.027344 19.199219C15.789062 19.199219 15.628906 19.359375 15.628906 19.601562 15.628906 19.839844 15.789062 20 16.027344 20L16.828125 20C17.066406 20 17.226562 19.839844 17.226562 19.601562 17.226562 19.359375 17.066406 19.199219 16.828125 19.199219zM18.828125 19.199219L18.027344 19.199219C17.789062 19.199219 17.628906 19.359375 17.628906 19.601562 17.628906 19.839844 17.789062 20 18.027344 20L18.828125 20C19.066406 20 19.226562 19.839844 19.226562 19.601562 19.226562 19.359375 19.066406 19.199219 18.828125 19.199219zM20.828125 19.199219L20.027344 19.199219C19.789062 19.199219 19.628906 19.359375 19.628906 19.601562 19.628906 19.839844 19.789062 20 20.027344 20L20.828125 20C21.066406 20 21.226562 19.839844 21.226562 19.601562 21.226562 19.359375 21.066406 19.199219 20.828125 19.199219zM16.828125 20.800781L16.027344 20.800781C15.789062 20.800781 15.628906 20.960938 15.628906 21.199219 15.628906 21.441406 15.789062 21.601562 16.027344 21.601562L16.828125 21.601562C17.066406 21.601562 17.226562 21.441406 17.226562 21.199219 17.226562 20.960938 17.066406 20.800781 16.828125 20.800781zM18.828125 20.800781L18.027344 20.800781C17.789062 20.800781 17.628906 20.960938 17.628906 21.199219 17.628906 21.441406 17.789062 21.601562 18.027344 21.601562L18.828125 21.601562C19.066406 21.601562 19.226562 21.441406 19.226562 21.199219 19.226562 20.960938 19.066406 20.800781 18.828125 20.800781zM20.828125 20.800781L20.027344 20.800781C19.789062 20.800781 19.628906 20.960938 19.628906 21.199219 19.628906 21.441406 19.789062 21.601562 20.027344 21.601562L20.828125 21.601562C21.066406 21.601562 21.226562 21.441406 21.226562 21.199219 21.226562 20.960938 21.066406 20.800781 20.828125 20.800781zM22.027344 13.601562L17.226562 13.601562C16.988281 13.601562 16.828125 13.761719 16.828125 14 16.828125 14.238281 16.988281 14.398438 17.226562 14.398438L22.027344 14.398438C22.269531 14.398438 22.429688 14.238281 22.429688 14 22.429688 13.761719 22.269531 13.601562 22.027344 13.601562zM22.027344 13.601562"/>
</svg>

<svg xmlns="http://www.w3.org/2000/svg" width="32" height="32" viewBox="0 0 24 24">
    <path d="M10.988 9.121l-.36-1.64A1.41 1.41 0 0 0 9.27 6.397H2.027C1.347 6.398.79 6.84.63 7.48l-.36 1.641c-.32 1.399-.363 2.918-.042 4.32.32 1.36.48 2.438.52 3.438L.827 18v2.8a3.21 3.21 0 0 0 3.2 3.2h3.199a3.212 3.212 0 0 0 3.203-3.2v-2.76l.078-1.161c.082-1 .238-2.078.52-3.438.28-1.402.28-2.921-.04-4.32zm-.761 4.117c-.278 1.403-.438 2.524-.52 3.563l-.078 1.16v2.8a2.41 2.41 0 0 1-2.402 2.4h-3.2a2.406 2.406 0 0 1-2.398-2.4v-2.8l-.043-1.082c-.04-1.04-.2-2.16-.52-3.559a9.037 9.037 0 0 1 .043-4l.36-1.64c.039-.282.558-.559.558-.559H9.27c.238 0 .476.2.558.48l.36 1.637a8.98 8.98 0 0 1 .039 4zm0 0"/>
    <path d="M3.27 0c-.684 0-1.204.52-1.204 1.16v5.52c0 .242.16.398.403.398h1.558c.243 0 .403-.156.442-.437V1.16C4.469.52 3.949 0 3.269 0zm.359 6.281h-.762l-.039-5.12c0-.24.16-.4.399-.4a.4.4 0 0 1 .402.4zm0 0M6.066 3.96c-.68 0-1.199.481-1.199 1.161V6.68c0 .242.16.398.403.398h1.597a.4.4 0 0 0 .403-.398V5.12c0-.64-.524-1.16-1.204-1.16zm.403 2.321h-.801v-1.16c0-.242.16-.402.398-.402.243 0 .403.16.403.402zm0 0M8.867 3.96c-.68 0-1.199.481-1.199 1.161V6.68c0 .242.16.398.398.398h1.602c.2 0 .398-.156.398-.398V5.12c0-.64-.52-1.16-1.199-1.16zm.403 2.321h-.801v-1.16c0-.242.16-.402.398-.402.242 0 .403.16.403.402zm0 0M9.227 8h-7.2c-.238 0-.398.16-.398.398v4c0 .243.16.403.398.403h7.2c.242 0 .402-.16.402-.403v-4c0-.238-.16-.398-.402-.398zm-.399 4H2.43V8.8h6.398zm0 0M4.027 17.602h-.8c-.239 0-.399.16-.399.398 0 .238.16.398.399.398h.8c.243 0 .403-.16.403-.398 0-.238-.16-.398-.403-.398zm0 0M3.227 13.602h-1.2c-.238 0-.398.16-.398.398 0 .238.16.398.398.398h1.2c.242 0 .402-.16.402-.398 0-.238-.16-.398-.402-.398zm0 0M6.027 17.602h-.8c-.239 0-.399.16-.399.398 0 .238.16.398.399.398h.8c.243 0 .403-.16.403-.398 0-.238-.16-.398-.403-.398zm0 0M8.027 17.602h-.8c-.239 0-.399.16-.399.398 0 .238.16.398.399.398h.8c.243 0 .403-.16.403-.398 0-.238-.16-.398-.403-.398zm0 0M4.027 16h-.8c-.239 0-.399.16-.399.398 0 .243.16.403.399.403h.8c.243 0 .403-.16.403-.403 0-.238-.16-.398-.403-.398zm0 0M6.027 16h-.8c-.239 0-.399.16-.399.398 0 .243.16.403.399.403h.8c.243 0 .403-.16.403-.403 0-.238-.16-.398-.403-.398zm0 0M8.027 16h-.8c-.239 0-.399.16-.399.398 0 .243.16.403.399.403h.8c.243 0 .403-.16.403-.403 0-.238-.16-.398-.403-.398zm0 0M4.027 19.2h-.8c-.239 0-.399.16-.399.402 0 .238.16.398.399.398h.8c.243 0 .403-.16.403-.398 0-.243-.16-.403-.403-.403zm0 0M6.027 19.2h-.8c-.239 0-.399.16-.399.402 0 .238.16.398.399.398h.8c.243 0 .403-.16.403-.398 0-.243-.16-.403-.403-.403zm0 0M8.027 19.2h-.8c-.239 0-.399.16-.399.402 0 .238.16.398.399.398h.8c.243 0 .403-.16.403-.398 0-.243-.16-.403-.403-.403zm0 0M4.027 20.8h-.8c-.239 0-.399.16-.399.4 0 .241.16.402.399.402h.8c.243 0 .403-.16.403-.403 0-.238-.16-.398-.403-.398zm0 0M6.027 20.8h-.8c-.239 0-.399.16-.399.4 0 .241.16.402.399.402h.8c.243 0 .403-.16.403-.403 0-.238-.16-.398-.403-.398zm0 0M8.027 20.8h-.8c-.239 0-.399.16-.399.4 0 .241.16.402.399.402h.8c.243 0 .403-.16.403-.403 0-.238-.16-.398-.403-.398zm0 0M9.227 13.602H4.43c-.242 0-.403.16-.403.398 0 .238.16.398.403.398h4.797c.242 0 .402-.16.402-.398 0-.238-.16-.398-.402-.398zm0 0M23.746 9.121l-.36-1.64a1.407 1.407 0 0 0-1.359-1.083H14.79c-.64 0-1.203.442-1.36 1.082l-.363 1.641c-.32 1.399-.359 2.879-.039 4.32.32 1.36.48 2.438.52 3.438L13.629 18v2.8c0 1.759 1.437 3.2 3.2 3.2h3.198c1.762 0 3.2-1.441 3.2-3.2v-2.76l.043-1.161c.078-1 .238-2.078.52-3.438.276-1.402.276-2.921-.044-4.32zm-.68 4.2c-.277 1.398-.48 2.519-.52 3.558l-.077 1.16v2.8a2.407 2.407 0 0 1-2.403 2.4h-3.199a2.404 2.404 0 0 1-2.398-2.4v-2.8l-.082-1.16c-.04-1.04-.239-2.16-.52-3.559a8.98 8.98 0 0 1 .04-4l.363-1.64a.557.557 0 0 1 .558-.48h7.281c.239 0 .477.198.559.48l.36 1.64c.32 1.32.32 2.68.038 4zm0 0"/>
    <path d="M16.066 0c-.68 0-1.199.559-1.199 1.2v5.6c0 .24.16.4.403.4h1.558c.238 0 .399-.16.442-.4V1.2c0-.68-.524-1.2-1.204-1.2zm.364 6.398h-.762l-.04-5.199c0-.238.161-.398.4-.398a.4.4 0 0 1 .402.398zm0 0M18.867 4c-.68 0-1.199.52-1.199 1.2v1.6c0 .24.16.4.398.4h1.602a.4.4 0 0 0 .398-.4V5.2c0-.68-.52-1.2-1.199-1.2zm.403 2.398h-.801V5.2c0-.238.16-.398.398-.398.242 0 .403.16.403.398zm0 0M21.668 4c-.68 0-1.2.52-1.2 1.2v1.6c0 .24.16.4.4.4h1.6a.4.4 0 0 0 .4-.4V5.2c0-.68-.52-1.2-1.2-1.2zm.398 2.398h-.796V5.2c0-.238.16-.398.398-.398.238 0 .398.16.398.398zm0 0M22.027 8h-7.199c-.242 0-.398.16-.398.398v4c0 .243.156.403.398.403h7.2c.242 0 .402-.16.402-.403v-4c0-.238-.16-.398-.403-.398zm-.398 4h-6.402V8.8h6.402zm0 0M16.828 17.602h-.8c-.239 0-.4.16-.4.398 0 .238.161.398.4.398h.8c.238 0 .399-.16.399-.398 0-.238-.16-.398-.399-.398zm0 0M16.027 13.602h-1.199c-.242 0-.398.16-.398.398 0 .238.156.398.398.398h1.2c.242 0 .402-.16.402-.398 0-.238-.16-.398-.403-.398zm0 0M18.828 17.602h-.8c-.239 0-.4.16-.4.398 0 .238.161.398.4.398h.8c.238 0 .399-.16.399-.398 0-.238-.16-.398-.399-.398zm0 0M20.828 17.602h-.8c-.239 0-.4.16-.4.398 0 .238.161.398.4.398h.8c.238 0 .399-.16.399-.398 0-.238-.16-.398-.399-.398zm0 0M16.828 16h-.8c-.239 0-.4.16-.4.398 0 .243.161.403.4.403h.8c.238 0 .399-.16.399-.403 0-.238-.16-.398-.399-.398zm0 0M18.828 16h-.8c-.239 0-.4.16-.4.398 0 .243.161.403.4.403h.8c.238 0 .399-.16.399-.403 0-.238-.16-.398-.399-.398zm0 0M20.828 16h-.8c-.239 0-.4.16-.4.398 0 .243.161.403.4.403h.8c.238 0 .399-.16.399-.403 0-.238-.16-.398-.399-.398zm0 0M16.828 19.2h-.8c-.239 0-.4.16-.4.402 0 .238.161.398.4.398h.8c.238 0 .399-.16.399-.398 0-.243-.16-.403-.399-.403zm0 0M18.828 19.2h-.8c-.239 0-.4.16-.4.402 0 .238.161.398.4.398h.8c.238 0 .399-.16.399-.398 0-.243-.16-.403-.399-.403zm0 0M20.828 19.2h-.8c-.239 0-.4.16-.4.402 0 .238.161.398.4.398h.8c.238 0 .399-.16.399-.398 0-.243-.16-.403-.399-.403zm0 0M16.828 20.8h-.8c-.239 0-.4.16-.4.4 0 .241.161.402.4.402h.8c.238 0 .399-.16.399-.403 0-.238-.16-.398-.399-.398zm0 0M18.828 20.8h-.8c-.239 0-.4.16-.4.4 0 .241.161.402.4.402h.8c.238 0 .399-.16.399-.403 0-.238-.16-.398-.399-.398zm0 0M20.828 20.8h-.8c-.239 0-.4.16-.4.4 0 .241.161.402.4.402h.8c.238 0 .399-.16.399-.403 0-.238-.16-.398-.399-.398zm0 0M22.027 13.602h-4.8c-.239 0-.399.16-.399.398 0 .238.16.398.399.398h4.8c.243 0 .403-.16.403-.398 0-.238-.16-.398-.403-.398zm0 0"/>
</svg>
